;FLAVOR:Marlin
;TIME:1336
;Filament used: 0.299915m
;Layer height: 0.2
;MINX:74.573
;MINY:74.34
;MINZ:0.2
;MAXX:145.427
;MAXY:145.659
;MAXZ:0.8
;Generated with Creality Slicer 4.8.2-254
M140 S60
M105
M190 S60
M104 S200
M105
M109 S200
M82 ;absolute extrusion mode

G28 ;Home

G92 E0 ;Reset Extruder
G1 Z2.0 F3000 ;Move Z Axis up
G1 X10.1 Y20 Z0.28 F5000.0 ;Move to start position
G1 X10.1 Y200.0 Z0.28 F1500.0 E15 ;Draw the first line
G1 X10.4 Y200.0 Z0.28 F5000.0 ;Move to side a little
G1 X10.4 Y20 Z0.28 F1500.0 E30 ;Draw the second line
G92 E0 ;Reset Extruder
G1 Z2.0 F3000 ;Move Z Axis up

G92 E0
G92 E0
G1 F3600 E-5
;LAYER_COUNT:4
;LAYER:0
M107
G0 F6000 X84.52 Y84.272 Z0.2
;TYPE:SKIRT
G1 F3600 E0
G1 F1200 X85.204 Y83.63 E0.0312
G1 X85.94 Y83.049 E0.06239
G1 X86.723 Y82.533 E0.09358
G1 X87.547 Y82.085 E0.12477
G1 X88.406 Y81.709 E0.15596
G1 X89.294 Y81.407 E0.18716
G1 X90.428 Y81.14 E0.22591
G1 X91.602 Y80.928 E0.26558
G1 X94.116 Y80.445 E0.35073
G1 X96.632 Y79.886 E0.43645
G1 X99.035 Y79.281 E0.51887
G1 X101.458 Y78.598 E0.6026
G1 X103.842 Y77.853 E0.68567
G1 X106.255 Y77.022 E0.77056
G1 X108.577 Y76.149 E0.85306
G1 X109.671 Y75.696 E0.89245
G1 X109.823 Y75.641 E0.89782
G1 X111.091 Y75.129 E0.94331
G1 X111.975 Y74.815 E0.97451
G1 X112.883 Y74.578 E1.00572
G1 X113.807 Y74.419 E1.0369
G1 X114.742 Y74.34 E1.06811
G1 X115.679 Y74.34 E1.09928
G1 X116.614 Y74.42 E1.13049
G1 X117.808 Y74.642 E1.17088
G1 X119.176 Y74.975 E1.21771
G1 X119.597 Y75.084 E1.23218
G1 X120.493 Y75.359 E1.26335
G1 X121.363 Y75.71 E1.29455
G1 X122.2 Y76.134 E1.32576
G1 X122.997 Y76.628 E1.35695
G1 X123.75 Y77.187 E1.38814
G1 X124.452 Y77.809 E1.41933
G1 X125.264 Y78.682 E1.45899
G1 X125.676 Y79.176 E1.48038
G1 X127.351 Y81.132 E1.56603
G1 X129.044 Y82.997 E1.64981
G1 X130.784 Y84.81 E1.73339
G1 X132.594 Y86.592 E1.81787
G1 X134.428 Y88.297 E1.90116
G1 X136.314 Y89.954 E1.98466
G1 X138.241 Y91.553 E2.06794
G1 X140.269 Y93.141 E2.15361
G1 X140.461 Y93.288 E2.16165
G1 X140.746 Y93.511 E2.17369
G1 X141.459 Y94.12 E2.20488
G1 X142.118 Y94.787 E2.23606
G1 X142.717 Y95.508 E2.26724
G1 X143.253 Y96.278 E2.29844
G1 X143.722 Y97.09 E2.32963
G1 X144.119 Y97.94 E2.36083
G1 X144.518 Y99.064 E2.4005
G1 X144.886 Y100.316 E2.44391
G1 X145.022 Y100.802 E2.46069
G1 X145.236 Y101.715 E2.49188
G1 X145.372 Y102.643 E2.52308
G1 X145.427 Y103.579 E2.55426
G1 X145.403 Y104.517 E2.58547
G1 X145.3 Y105.449 E2.61666
G1 X145.117 Y106.369 E2.64786
G1 X144.77 Y107.516 E2.68771
G1 X144.37 Y108.619 E2.72674
G1 X143.534 Y111.027 E2.81152
G1 X142.773 Y113.445 E2.89583
G1 X142.082 Y115.876 E2.97989
G1 X141.469 Y118.283 E3.0625
G1 X140.91 Y120.771 E3.14731
G1 X140.432 Y123.239 E3.23093
G1 X140.027 Y125.689 E3.31352
G1 X139.869 Y126.891 E3.35384
G1 X139.836 Y127.082 E3.36029
G1 X139.655 Y128.367 E3.40345
G1 X139.485 Y129.29 E3.43466
G1 X139.237 Y130.194 E3.46584
G1 X138.87 Y131.177 E3.50074
G1 X138.464 Y132.023 E3.53195
G1 X137.987 Y132.83 E3.56313
G1 X137.444 Y133.595 E3.59433
G1 X136.715 Y134.44 E3.63145
G1 X136.081 Y135.104 E3.66199
G1 X135.834 Y135.367 E3.67399
G1 X135.516 Y135.695 E3.68918
G1 X134.835 Y136.34 E3.72038
G1 X134.101 Y136.924 E3.75158
G1 X133.321 Y137.444 E3.78276
G1 X132.499 Y137.896 E3.81396
G1 X131.641 Y138.276 E3.84517
G1 X130.755 Y138.581 E3.87633
G1 X129.546 Y138.868 E3.91766
G1 X128.365 Y139.078 E3.95756
G1 X125.884 Y139.555 E4.04159
G1 X123.368 Y140.114 E4.12731
G1 X120.965 Y140.719 E4.20973
G1 X118.542 Y141.402 E4.29346
G1 X116.158 Y142.147 E4.37653
G1 X113.745 Y142.978 E4.46142
G1 X111.423 Y143.851 E4.54392
G1 X110.329 Y144.304 E4.58331
G1 X110.181 Y144.358 E4.58855
G1 X108.902 Y144.873 E4.63441
G1 X108.018 Y145.186 E4.6656
G1 X107.11 Y145.422 E4.6968
G1 X106.186 Y145.581 E4.72798
G1 X105.251 Y145.659 E4.75919
G1 X104.313 Y145.658 E4.79039
G1 X103.379 Y145.578 E4.82157
G1 X102.214 Y145.362 E4.86097
G1 X101.047 Y145.08 E4.90091
G1 X100.499 Y144.942 E4.9197
G1 X99.6 Y144.674 E4.9509
G1 X98.727 Y144.331 E4.9821
G1 X97.887 Y143.915 E5.01328
G1 X97.085 Y143.429 E5.04447
G1 X96.327 Y142.876 E5.07567
G1 X95.62 Y142.26 E5.10686
G1 X94.769 Y141.358 E5.14811
G1 X94.008 Y140.454 E5.18741
G1 X92.28 Y138.459 E5.27519
G1 X90.62 Y136.651 E5.35683
G1 X88.841 Y134.817 E5.44181
G1 X87.032 Y133.058 E5.52574
G1 X85.184 Y131.358 E5.60925
G1 X83.29 Y129.713 E5.69269
G1 X81.352 Y128.122 E5.77609
G1 X80.438 Y127.422 E5.81438
G1 X80.267 Y127.279 E5.82179
G1 X79.27 Y126.502 E5.86383
G1 X78.555 Y125.895 E5.89503
G1 X77.895 Y125.228 E5.92624
G1 X77.294 Y124.508 E5.95743
G1 X76.757 Y123.74 E5.9886
G1 X76.287 Y122.928 E6.0198
G1 X75.888 Y122.079 E6.05101
G1 X75.476 Y120.917 E6.09201
G1 X75.109 Y119.669 E6.13528
G1 X74.977 Y119.197 E6.15158
G1 X74.764 Y118.283 E6.18279
G1 X74.628 Y117.355 E6.21399
G1 X74.573 Y116.419 E6.24517
G1 X74.597 Y115.482 E6.27635
G1 X74.701 Y114.55 E6.30754
G1 X74.884 Y113.63 E6.33874
G1 X75.23 Y112.484 E6.37855
G1 X75.63 Y111.381 E6.41758
G1 X76.466 Y108.973 E6.50236
G1 X77.227 Y106.555 E6.58667
G1 X77.918 Y104.124 E6.67073
G1 X78.533 Y101.71 E6.75358
G1 X79.09 Y99.229 E6.83815
G1 X79.568 Y96.761 E6.92177
G1 X79.973 Y94.311 E7.00436
G1 X80.131 Y93.109 E7.04468
G1 X80.166 Y92.907 E7.0515
G1 X80.345 Y91.633 E7.09429
G1 X80.514 Y90.711 E7.12547
G1 X80.762 Y89.806 E7.15668
G1 X81.086 Y88.926 E7.18787
G1 X81.483 Y88.076 E7.21907
G1 X81.952 Y87.264 E7.25026
G1 X82.488 Y86.494 E7.28146
G1 X83.261 Y85.586 E7.32112
G1 X84.202 Y84.597 E7.36653
G1 X84.52 Y84.272 E7.38165
G0 F6000 X84.806 Y84.552
G1 F1200 X85.477 Y83.922 E7.41226
G1 X86.201 Y83.353 E7.44289
G1 X86.972 Y82.85 E7.47351
G1 X87.783 Y82.415 E7.50412
G1 X88.629 Y82.052 E7.53474
G1 X89.504 Y81.763 E7.56539
G1 X90.499 Y81.534 E7.59935
G1 X91.654 Y81.326 E7.63838
G1 X94.214 Y80.833 E7.72509
G1 X96.669 Y80.288 E7.80873
G1 X99.177 Y79.657 E7.89475
G1 X101.538 Y78.991 E7.97634
G1 X104.017 Y78.216 E8.06273
G1 X106.378 Y77.404 E8.14577
G1 X108.738 Y76.517 E8.22962
G1 X109.825 Y76.066 E8.26876
G1 X109.935 Y76.026 E8.27266
G1 X111.241 Y75.499 E8.3195
G1 X112.109 Y75.193 E8.35011
G1 X113 Y74.962 E8.38072
G1 X113.908 Y74.81 E8.41134
G1 X114.826 Y74.737 E8.44197
G1 X115.747 Y74.744 E8.47261
G1 X116.663 Y74.831 E8.50321
G1 X117.713 Y75.031 E8.53876
G1 X119.081 Y75.364 E8.58559
G1 X119.496 Y75.471 E8.59984
G1 X120.376 Y75.742 E8.63047
G1 X121.229 Y76.089 E8.6611
G1 X122.048 Y76.508 E8.6917
G1 X122.828 Y76.997 E8.72232
G1 X123.563 Y77.551 E8.75293
G1 X124.247 Y78.168 E8.78357
G1 X124.957 Y78.939 E8.81843
G1 X125.353 Y79.414 E8.839
G1 X127.05 Y81.395 E8.92575
G1 X128.76 Y83.279 E9.01038
G1 X130.497 Y85.089 E9.09382
G1 X132.323 Y86.887 E9.17905
G1 X134.144 Y88.58 E9.26175
G1 X136.041 Y90.245 E9.3457
G1 X138.023 Y91.891 E9.43139
G1 X140.029 Y93.461 E9.51611
G1 X140.499 Y93.826 E9.53591
G1 X141.199 Y94.424 E9.56653
G1 X141.844 Y95.081 E9.59715
G1 X142.43 Y95.791 E9.62777
G1 X142.952 Y96.55 E9.65841
G1 X143.406 Y97.35 E9.689
G1 X143.789 Y98.188 E9.71965
G1 X144.135 Y99.177 E9.7545
G1 X144.501 Y100.423 E9.79769
G1 X144.637 Y100.909 E9.81447
G1 X144.846 Y101.806 E9.84511
G1 X144.977 Y102.717 E9.87572
G1 X145.028 Y103.637 E9.90637
G1 X144.999 Y104.557 E9.93698
G1 X144.891 Y105.471 E9.96759
G1 X144.704 Y106.372 E9.9982
G1 X144.394 Y107.38 E10.03327
G1 X143.978 Y108.527 E10.07385
G1 X143.151 Y110.913 E10.15784
G1 X142.4 Y113.297 E10.24098
G1 X141.696 Y115.772 E10.32656
G1 X141.08 Y118.192 E10.40962
G1 X140.514 Y120.713 E10.49555
G1 X140.039 Y123.159 E10.57843
G1 X139.636 Y125.603 E10.66081
G1 X139.473 Y126.839 E10.70228
G1 X139.438 Y127.036 E10.70893
G1 X139.259 Y128.312 E10.75179
G1 X139.091 Y129.217 E10.7824
G1 X138.846 Y130.104 E10.81301
G1 X138.502 Y131.02 E10.84555
G1 X138.103 Y131.849 E10.87615
G1 X137.633 Y132.641 E10.90679
G1 X137.097 Y133.389 E10.93739
G1 X136.426 Y134.164 E10.97149
G1 X135.792 Y134.828 E11.00202
G1 X135.546 Y135.088 E11.01393
G1 X135.228 Y135.416 E11.02912
G1 X134.56 Y136.049 E11.05973
G1 X133.838 Y136.621 E11.09037
G1 X133.07 Y137.128 E11.12098
G1 X132.261 Y137.567 E11.15159
G1 X131.416 Y137.934 E11.18223
G1 X130.543 Y138.226 E11.21285
G1 X129.476 Y138.474 E11.24928
G1 X128.297 Y138.684 E11.28911
G1 X125.786 Y139.167 E11.37416
G1 X123.331 Y139.712 E11.4578
G1 X120.823 Y140.343 E11.54382
G1 X118.462 Y141.009 E11.62541
G1 X115.983 Y141.784 E11.7118
G1 X113.622 Y142.596 E11.79484
G1 X111.262 Y143.483 E11.87869
G1 X110.175 Y143.934 E11.91784
G1 X110.054 Y143.978 E11.92212
G1 X108.753 Y144.502 E11.96877
G1 X107.884 Y144.808 E11.99941
G1 X106.993 Y145.038 E12.03002
G1 X106.085 Y145.19 E12.06064
G1 X105.167 Y145.262 E12.09126
G1 X104.246 Y145.255 E12.1219
G1 X103.33 Y145.167 E12.1525
G1 X102.308 Y144.973 E12.1871
G1 X101.144 Y144.692 E12.22693
G1 X100.596 Y144.554 E12.24572
G1 X99.714 Y144.291 E12.27634
G1 X98.858 Y143.952 E12.30696
G1 X98.035 Y143.54 E12.33757
G1 X97.25 Y143.058 E12.36821
G1 X96.511 Y142.51 E12.39881
G1 X95.821 Y141.9 E12.42944
G1 X95.075 Y141.1 E12.46582
G1 X94.299 Y140.178 E12.5059
G1 X92.607 Y138.226 E12.59182
G1 X90.884 Y136.348 E12.67659
G1 X89.124 Y134.534 E12.76066
G1 X87.299 Y132.759 E12.84533
G1 X85.454 Y131.062 E12.9287
G1 X83.54 Y129.4 E13.01302
G1 X81.631 Y127.833 E13.09516
G1 X80.681 Y127.105 E13.13497
G1 X80.511 Y126.963 E13.14234
G1 X79.516 Y126.187 E13.1843
G1 X78.815 Y125.59 E13.21493
G1 X78.169 Y124.934 E13.24555
G1 X77.582 Y124.225 E13.27617
G1 X77.058 Y123.467 E13.30681
G1 X76.603 Y122.667 E13.33742
G1 X76.218 Y121.831 E13.36804
G1 X75.86 Y120.805 E13.40418
G1 X75.495 Y119.561 E13.4473
G1 X75.363 Y119.089 E13.4636
G1 X75.153 Y118.192 E13.49424
G1 X75.023 Y117.281 E13.52485
G1 X74.972 Y116.362 E13.55546
G1 X75.001 Y115.442 E13.58608
G1 X75.109 Y114.527 E13.61672
G1 X75.297 Y113.626 E13.64733
G1 X75.606 Y112.62 E13.68234
G1 X76.022 Y111.473 E13.72292
G1 X76.849 Y109.087 E13.80691
G1 X77.6 Y106.703 E13.89004
G1 X78.304 Y104.228 E13.97563
G1 X78.922 Y101.798 E14.05902
G1 X79.486 Y99.287 E14.14462
G1 X79.963 Y96.831 E14.22783
G1 X80.364 Y94.397 E14.30988
G1 X80.527 Y93.161 E14.35134
G1 X80.564 Y92.949 E14.3585
G1 X80.741 Y91.689 E14.40082
G1 X80.908 Y90.783 E14.43146
G1 X81.153 Y89.896 E14.46207
G1 X81.474 Y89.033 E14.49269
G1 X81.869 Y88.201 E14.52332
G1 X82.335 Y87.407 E14.55395
G1 X82.868 Y86.656 E14.58458
G1 X83.551 Y85.862 E14.61941
G1 X84.488 Y84.877 E14.66463
G1 X84.806 Y84.552 E14.67975
G0 F6000 X85.091 Y84.831
G1 F1200 X85.751 Y84.215 E14.70978
G1 X86.463 Y83.658 E14.73984
G1 X87.22 Y83.167 E14.76985
G1 X88.019 Y82.745 E14.79991
G1 X88.851 Y82.395 E14.82993
G1 X89.712 Y82.121 E14.85998
G1 X90.57 Y81.927 E14.88924
G1 X91.721 Y81.719 E14.92814
G1 X94.297 Y81.224 E15.01539
G1 X96.789 Y80.671 E15.10029
G1 X99.27 Y80.047 E15.18538
G1 X101.671 Y79.369 E15.26836
G1 X104.131 Y78.6 E15.35408
G1 X106.501 Y77.785 E15.43744
G1 X108.879 Y76.891 E15.52194
G1 X109.978 Y76.435 E15.56151
G1 X110.104 Y76.389 E15.56597
G1 X111.391 Y75.87 E15.61213
G1 X112.242 Y75.57 E15.64214
G1 X113.117 Y75.346 E15.67218
G1 X114.009 Y75.201 E15.70224
G1 X114.909 Y75.134 E15.73225
G1 X115.812 Y75.148 E15.76229
G1 X116.71 Y75.242 E15.79232
G1 X117.618 Y75.419 E15.82309
G1 X118.986 Y75.752 E15.86992
G1 X119.395 Y75.858 E15.88397
G1 X120.257 Y76.124 E15.91398
G1 X121.093 Y76.467 E15.94403
G1 X121.896 Y76.881 E15.97408
G1 X122.658 Y77.365 E16.0041
G1 X123.375 Y77.915 E16.03416
G1 X124.04 Y78.526 E16.0642
G1 X124.65 Y79.195 E16.09431
G1 X125.062 Y79.689 E16.1157
G1 X126.749 Y81.659 E16.20197
G1 X128.458 Y83.542 E16.28654
G1 X130.211 Y85.369 E16.37076
G1 X132.053 Y87.182 E16.45672
G1 X133.874 Y88.874 E16.5394
G1 X135.802 Y90.568 E16.62476
G1 X137.749 Y92.184 E16.70892
G1 X139.79 Y93.782 E16.79513
G1 X139.968 Y93.918 E16.80258
G1 X140.253 Y94.141 E16.81462
G1 X140.939 Y94.728 E16.84465
G1 X141.57 Y95.374 E16.87468
G1 X142.141 Y96.073 E16.9047
G1 X142.649 Y96.82 E16.93475
G1 X143.089 Y97.609 E16.9648
G1 X143.457 Y98.434 E16.99484
G1 X143.751 Y99.29 E17.02494
G1 X144.116 Y100.531 E17.06797
G1 X144.252 Y101.017 E17.08475
G1 X144.456 Y101.897 E17.1148
G1 X144.582 Y102.791 E17.14483
G1 X144.629 Y103.693 E17.17487
G1 X144.595 Y104.596 E17.20492
G1 X144.482 Y105.492 E17.23496
G1 X144.29 Y106.374 E17.26498
G1 X144.018 Y107.244 E17.2953
G1 X143.629 Y108.317 E17.33326
G1 X142.768 Y110.799 E17.42064
G1 X142.01 Y113.205 E17.50454
G1 X141.309 Y115.67 E17.58978
G1 X140.683 Y118.129 E17.67417
G1 X140.125 Y120.614 E17.75888
G1 X139.65 Y123.065 E17.84192
G1 X139.235 Y125.576 E17.92657
G1 X139.076 Y126.787 E17.96719
G1 X139.044 Y126.971 E17.9734
G1 X138.863 Y128.256 E18.01657
G1 X138.698 Y129.144 E18.04661
G1 X138.455 Y130.014 E18.07665
G1 X138.134 Y130.862 E18.10681
G1 X137.742 Y131.675 E18.13683
G1 X137.28 Y132.451 E18.16687
G1 X136.75 Y133.183 E18.19692
G1 X136.136 Y133.888 E18.22802
G1 X135.543 Y134.509 E18.25658
G1 X135.259 Y134.81 E18.27034
G1 X134.941 Y135.138 E18.28554
G1 X134.285 Y135.758 E18.31556
G1 X133.576 Y136.317 E18.34559
G1 X132.82 Y136.812 E18.37564
G1 X132.023 Y137.238 E18.4057
G1 X131.192 Y137.591 E18.43573
G1 X130.333 Y137.87 E18.46577
G1 X129.406 Y138.08 E18.49738
G1 X128.287 Y138.279 E18.53518
G1 X125.703 Y138.776 E18.6227
G1 X123.211 Y139.329 E18.7076
G1 X120.73 Y139.953 E18.79269
G1 X118.329 Y140.631 E18.87567
G1 X115.869 Y141.4 E18.9614
G1 X113.499 Y142.215 E19.04475
G1 X111.121 Y143.109 E19.12925
G1 X110.022 Y143.565 E19.16883
G1 X109.884 Y143.615 E19.17371
G1 X108.603 Y144.131 E19.21964
G1 X107.751 Y144.431 E19.24968
G1 X106.876 Y144.654 E19.27972
G1 X105.985 Y144.799 E19.30974
G1 X105.084 Y144.865 E19.33979
G1 X104.181 Y144.851 E19.36983
G1 X103.283 Y144.756 E19.39986
G1 X102.402 Y144.584 E19.42972
G1 X101.242 Y144.304 E19.46941
G1 X100.694 Y144.166 E19.4882
G1 X99.829 Y143.907 E19.51823
G1 X98.99 Y143.572 E19.54828
G1 X98.184 Y143.165 E19.57831
G1 X97.417 Y142.688 E19.60835
G1 X96.696 Y142.145 E19.63837
G1 X96.025 Y141.54 E19.66842
G1 X95.381 Y140.842 E19.70001
G1 X94.623 Y139.941 E19.73917
G1 X92.907 Y137.961 E19.82632
G1 X91.183 Y136.082 E19.91113
G1 X89.39 Y134.234 E19.99678
G1 X87.602 Y132.496 E20.07971
G1 X85.704 Y130.75 E20.16549
G1 X83.81 Y129.105 E20.24892
G1 X81.86 Y127.504 E20.33284
G1 X80.924 Y126.787 E20.37206
G1 X80.751 Y126.642 E20.37956
G1 X79.762 Y125.871 E20.42127
G1 X79.075 Y125.285 E20.4513
G1 X78.442 Y124.64 E20.48136
G1 X77.869 Y123.942 E20.5114
G1 X77.36 Y123.196 E20.54144
G1 X76.92 Y122.408 E20.57145
G1 X76.55 Y121.584 E20.6015
G1 X76.244 Y120.692 E20.63286
G1 X75.993 Y119.833 E20.66263
G1 X75.88 Y119.453 E20.67581
G1 X75.748 Y118.981 E20.69211
G1 X75.543 Y118.101 E20.72217
G1 X75.418 Y117.207 E20.75219
G1 X75.371 Y116.305 E20.78223
G1 X75.405 Y115.403 E20.81225
G1 X75.518 Y114.507 E20.84229
G1 X75.71 Y113.624 E20.87235
G1 X75.982 Y112.756 E20.9026
G1 X76.371 Y111.683 E20.94056
G1 X77.232 Y109.201 E21.02794
G1 X77.99 Y106.795 E21.11184
G1 X78.691 Y104.33 E21.19708
G1 X79.317 Y101.871 E21.28147
G1 X79.875 Y99.386 E21.36618
G1 X80.35 Y96.935 E21.44922
G1 X80.765 Y94.424 E21.53387
G1 X80.924 Y93.213 E21.57449
G1 X80.958 Y93.019 E21.58104
G1 X81.137 Y91.744 E21.62387
G1 X81.302 Y90.856 E21.65391
G1 X81.544 Y89.986 E21.68394
G1 X81.863 Y89.141 E21.71398
G1 X82.255 Y88.328 E21.744
G1 X82.718 Y87.552 E21.77406
G1 X83.247 Y86.821 E21.80407
G1 X83.841 Y86.137 E21.8342
G1 X84.773 Y85.156 E21.8792
G1 X85.091 Y84.831 E21.89433
G1 F3600 E16.89433
;MESH:1-Fultz-Snowflake.stl
G0 F6000 X91.731 Y92.48
G0 X92.69 Y92.677
G0 X93.469 Y93.466
G0 X94.413 Y93.947
G0 X94.919 Y94.606
G0 X94.941 Y94.861
G0 X95.091 Y95.299
G0 X96.77 Y96.143
G0 X98.397 Y96.671
G0 X99.673 Y97.269
G0 X100.869 Y97.981
G0 X103.437 Y99.854
G0 X104.482 Y101.005
